X: 1
T: Inveresk House
C: J. Mauchline
R: reel
Z: Jack Campin: "Embro, Embro", transcription (c) 2001
S: David Glen's Collection of Highland Bagpipe Music part 1
M: 2/4
L: 1/16
%Q: 1/4=72
K: D
A2 |\
f2ed e2dB | ABdA B2d2 | f2ed afed | f2e2 e2de |
f2ed e2dB | ABdA B2d2 | afef edBA | B2d2 d2  :|
fg |\
a2d2 f2ed | adfd adfd | a2d2 f2ed | f2e2 e2fg |
a2d2 f2ed | adfd adfd | fedB ABde | f2d2 d2  ||
fg |\
a2d2 f2ed | adfd adfd | a2d2 f2ed | B2e2 e2fg |
afdf edBd | ABdA BABd | afef edBA | B2d2 d2  ||
B2 |\
A3B  A2d2 | BABd e2de | f2ed afed | f2e2 e2f2 |
A3B  A2d2 | BABd e2de | afef edBA | B2d2 d2  :|
